X:1
T: Ballincollig in the Morning
C:
R:Reel
Q:232
K:G
M:4/4
L:1/8
|:Bc|dB AB G2AB|cB AG F2Bc|dB ge dB GA|B2A2 A2Bc|
dB AB G2AB|cB AG F2Bc|dB ge dB GA|G2GG G2:|
|:Bc|dB ge dB GB|dB ge d2Bc|dB ge dB GA|B2D2 D2ge|
dc BA G2AB|cB AG F2Bc|dB ge dB GA|G2GG G2:|
